X: 182
T: SLIDE: Hare in the Corn (Gmaj)
T: Cat in the Corner
C: C: Trad.; S: Various
C: Set Leaders: Sophie, Anton
Z: [Unedited]; RickR at The Session
N: https://thesession.org/members/26966/sets/99585
R: Slide
M: 12/8
L: 1/8
Q: 3/8=116
K: Gmaj
|:A|B2B A2G BdB AGA|B2e d2B A3 AGA|
B3 AGA BdB AGA|B2e d2B G3 G2:||
|:d|e2e edB def g3|BAB d2B A3 ABd|
e3 edB e2f g3|BAB d2B G3 G2:||

